web-registry/src/assets/svgs/green-idea-plant-lightbulb.svg

<svg width="71" height="79" viewBox="0 0 71 79" fill="none" xmlns="http://www.w3.org/2000/svg">
<path d="M31.5596 58.91C15.6121 68.7463 9.33575 50.4707 9.33575 50.4707C19.5754 43.6099 29.9457 47.5571 31.5596 58.91Z" fill="#DCF0E3" stroke="#4FB573" stroke-width="3" stroke-linecap="round" stroke-linejoin="round"/>
<path d="M9.77218 50.3647C16.3061 51.1422 30.3927 54.627 34.4681 62.346" stroke="#4FB573" stroke-width="3" stroke-linecap="round" stroke-linejoin="round"/>
<path d="M15.2874 58.7065L22.9085 53.8778" stroke="#4FB573" stroke-width="3" stroke-linecap="round" stroke-linejoin="round"/>
<path d="M12.0715 55.4423L17.5071 52.1548" stroke="#4FB573" stroke-width="3" stroke-linecap="round" stroke-linejoin="round"/>
<path d="M19.4077 61.0973L27.0289 56.2686" stroke="#4FB573" stroke-width="3" stroke-linecap="round" stroke-linejoin="round"/>
<path d="M38.4849 56.91C54.4323 66.7463 60.7087 48.4707 60.7087 48.4707C50.469 41.6099 40.0988 45.5571 38.4849 56.91Z" fill="#DCF0E3" stroke="#4FB573" stroke-width="3" stroke-linecap="round" stroke-linejoin="round"/>
<path d="M60.2722 48.3647C53.7384 49.1422 39.6518 52.627 35.5763 60.346" stroke="#4FB573" stroke-width="3" stroke-linecap="round" stroke-linejoin="round"/>
<path d="M54.7571 56.7065L47.1359 51.8778" stroke="#4FB573" stroke-width="3" stroke-linecap="round" stroke-linejoin="round"/>
<path d="M57.9729 53.4423L52.5373 50.1548" stroke="#4FB573" stroke-width="3" stroke-linecap="round" stroke-linejoin="round"/>
<path d="M50.6367 59.0973L43.0155 54.2686" stroke="#4FB573" stroke-width="3" stroke-linecap="round" stroke-linejoin="round"/>
<line x1="34.5" y1="65.5" x2="34.5" y2="46.5" stroke="#4FB573" stroke-width="3" stroke-linecap="round"/>
<path d="M28 30.5C31.3333 29.3334 38.5 27 38.5 19.5C38.5 12.5 31 12.4822 31 19.5C31 26.5 37.5 29.5 41.5 30.5" stroke="#FFC432" stroke-width="2"/>
<path d="M24.7301 23.5764L23.6033 24.5664L24.7301 23.5764ZM44.2699 23.5764L43.143 22.5864L44.2699 23.5764ZM46 15C46 17.908 44.9226 20.5607 43.143 22.5864L45.3967 24.5664C47.6388 22.0143 49 18.6643 49 15H46ZM34.5 3.5C40.8513 3.5 46 8.64873 46 15H49C49 6.99187 42.5081 0.5 34.5 0.5V3.5ZM23 15C23 8.64873 28.1487 3.5 34.5 3.5V0.5C26.4919 0.5 20 6.99187 20 15H23ZM25.857 22.5864C24.0774 20.5607 23 17.908 23 15H20C20 18.6643 21.3612 22.0143 23.6033 24.5664L25.857 22.5864ZM28 34V27.6854H25V34H28ZM37.5 37.5H31.5V40.5H37.5V37.5ZM41 27.6854V34H44V27.6854H41ZM25 34C25 37.5899 27.9101 40.5 31.5 40.5V37.5C29.567 37.5 28 35.933 28 34H25ZM23.6033 24.5664C24.4831 25.5679 25 26.6437 25 27.6854H28C28 25.6499 27.0081 23.8966 25.857 22.5864L23.6033 24.5664ZM37.5 40.5C41.0898 40.5 44 37.5899 44 34H41C41 35.933 39.433 37.5 37.5 37.5V40.5ZM43.143 22.5864C41.9919 23.8966 41 25.6499 41 27.6854H44C44 26.6437 44.5169 25.5679 45.3967 24.5664L43.143 22.5864Z" fill="#4FB573"/>
<line x1="26.5" y1="31" x2="41.5" y2="31" stroke="#4FB573" stroke-width="2"/>
<rect x="30.5" y="39" width="8" height="6" rx="2" stroke="#4FB573" stroke-width="3" stroke-linecap="round" stroke-linejoin="round"/>
<path d="M33.5 35H42.5" stroke="#4FB573" stroke-width="2" stroke-linecap="round"/>
</svg>

<?xml version="1.0" encoding="utf-8"?>
<!-- Generator: Adobe Illustrator 25.3.1, SVG Export Plug-In . SVG Version: 6.00 Build 0)  -->
<svg version="1.1" id="Layer_1" xmlns="http://www.w3.org/2000/svg" xmlns:xlink="http://www.w3.org/1999/xlink" x="0px" y="0px"
	 viewBox="0 0 71 67.1" style="enable-background:new 0 0 71 67.1;" xml:space="preserve">
<style type="text/css">
	.st0{fill:#DCF0E3;stroke:#4FB573;stroke-width:3;stroke-linecap:round;stroke-linejoin:round;}
	.st1{fill:none;stroke:#4FB573;stroke-width:3;stroke-linecap:round;stroke-linejoin:round;}
	.st2{fill:none;stroke:#4FB573;stroke-width:3;stroke-linecap:round;}
	.st3{fill:none;stroke:#FFC432;stroke-width:2;}
	.st4{fill:#4FB573;}
	.st5{fill:none;stroke:#4FB573;stroke-width:2;}
	.st6{fill:none;stroke:#4FB573;stroke-width:2;stroke-linecap:round;}
</style>
<path class="st0" d="M31.6,58.9c-15.9,9.8-22.2-8.4-22.2-8.4C19.6,43.6,29.9,47.6,31.6,58.9z"/>
<path class="st1" d="M9.8,50.4c6.5,0.8,20.6,4.3,24.7,12"/>
<path class="st1" d="M15.3,58.7l7.6-4.8"/>
<path class="st1" d="M12.1,55.4l5.4-3.3"/>
<path class="st1" d="M19.4,61.1l7.6-4.8"/>
<path class="st0" d="M38.5,56.9c15.9,9.8,22.2-8.4,22.2-8.4C50.5,41.6,40.1,45.6,38.5,56.9z"/>
<path class="st1" d="M60.3,48.4c-6.5,0.8-20.6,4.3-24.7,12"/>
<path class="st1" d="M54.8,56.7l-7.6-4.8"/>
<path class="st1" d="M58,53.4l-5.4-3.3"/>
<path class="st1" d="M50.6,59.1L43,54.3"/>
<line class="st2" x1="34.5" y1="65.5" x2="34.5" y2="46.5"/>
<path class="st3" d="M28,30.5c3.3-1.2,10.5-3.5,10.5-11c0-7-7.5-7-7.5,0c0,7,6.5,10,10.5,11"/>
<path class="st4" d="M24.7,23.6l-1.1,1L24.7,23.6z M44.3,23.6l-1.1-1L44.3,23.6z M46,15c0,2.9-1.1,5.6-2.9,7.6l2.3,2
	C47.6,22,49,18.7,49,15H46z M34.5,3.5C40.9,3.5,46,8.6,46,15h3c0-8-6.5-14.5-14.5-14.5V3.5z M23,15c0-6.4,5.1-11.5,11.5-11.5v-3
	C26.5,0.5,20,7,20,15H23z M25.9,22.6c-1.8-2-2.9-4.7-2.9-7.6h-3c0,3.7,1.4,7,3.6,9.6L25.9,22.6z M28,34v-6.3h-3V34H28z M37.5,37.5
	h-6v3h6V37.5z M41,27.7V34h3v-6.3H41z M25,34c0,3.6,2.9,6.5,6.5,6.5v-3c-1.9,0-3.5-1.6-3.5-3.5H25z M23.6,24.6
	c0.9,1,1.4,2.1,1.4,3.1h3c0-2-1-3.8-2.1-5.1L23.6,24.6z M37.5,40.5c3.6,0,6.5-2.9,6.5-6.5h-3c0,1.9-1.6,3.5-3.5,3.5V40.5z
	 M43.1,22.6C42,23.9,41,25.6,41,27.7h3c0-1,0.5-2.1,1.4-3.1L43.1,22.6z"/>
<line class="st5" x1="26.5" y1="31" x2="41.5" y2="31"/>
<path class="st1" d="M32.5,39h4c1.1,0,2,0.9,2,2v2c0,1.1-0.9,2-2,2h-4c-1.1,0-2-0.9-2-2v-2C30.5,39.9,31.4,39,32.5,39z"/>
<path class="st6" d="M33.5,35h9"/>
</svg>
